img/favicon.svg

<svg width="152" height="152" viewBox="0 0 152 152" fill="none" xmlns="http://www.w3.org/2000/svg">
<rect width="152" height="152" fill="#EE3643"/>
<path fill-rule="evenodd" clip-rule="evenodd" d="M35.8913 35C33.2296 35 33 37.81 33 37.81V59.0845C33 63.1275 36.9912 63 36.9912 63H49.3745C52.0349 63 51.5757 65.0554 51.5757 65.0554C51.5757 65.0554 48.1811 82.9708 47.8154 86.0017C47.4483 89.0354 45.2472 90.9646 45.2472 90.9646C45.2472 90.9646 42.3119 92.6185 41.1199 93.2615C39.9279 93.9046 39.9279 97 39.9279 97H83V95.2817C83 93.2615 73.4977 90.9646 69.9217 90.5969C66.3444 90.2307 67.0785 87.8401 67.0785 87.8401L68.5455 77.0922H72.6728L74.2319 66.2507H70.1046L70.5597 63H82.3958C90.3768 62.1724 96 56.6967 96 56.6967V40.1583C89.6715 35.6567 79.7354 35 79.7354 35H35.8913ZM115.541 45H134.085C134.876 45 136 46.6707 136 48.5C136 50.3293 134.876 52 134.085 52H115.541C114.688 55.0493 112.693 57 110.369 57H100V40H110.369C112.694 40 114.688 41.9507 115.541 45ZM42.6004 119C40 119 40 116.176 40 116.176V101.018H83V116.268C83 118.747 80.2144 119 80.2144 119H42.6004ZM82 42.5229V42.4771C82 41.6647 81.3806 41 80.6237 41H39.3763C38.6193 41 38 41.6647 38 42.4771V42.5229C38 43.3353 38.6193 44 39.3763 44H80.6237C81.3806 44 82 43.3353 82 42.5229Z" fill="white"/>
</svg>

<svg width="152" height="152" fill="none" xmlns="http://www.w3.org/2000/svg"><path fill="#EE3643" d="M0 0h152v152H0z"/><path fill-rule="evenodd" clip-rule="evenodd" d="M35.891 35C33.23 35 33 37.81 33 37.81v21.274C33 63.127 36.991 63 36.991 63h12.383c2.66 0 2.202 2.055 2.202 2.055s-3.395 17.916-3.76 20.947c-.368 3.033-2.569 4.963-2.569 4.963s-2.935 1.653-4.127 2.296C39.928 93.906 39.928 97 39.928 97H83v-1.718c0-2.02-9.502-4.317-13.078-4.685-3.578-.366-2.843-2.757-2.843-2.757l1.467-10.748h4.127l1.559-10.841h-4.127L70.56 63h11.836C90.376 62.172 96 56.697 96 56.697V40.158C89.671 35.657 79.735 35 79.735 35H35.891zm79.65 10h18.544c.791 0 1.915 1.67 1.915 3.5s-1.124 3.5-1.915 3.5h-18.544c-.853 3.05-2.848 5-5.172 5H100V40h10.369c2.325 0 4.319 1.95 5.172 5zm-72.94 74C40 119 40 116.176 40 116.176v-15.158h43v15.25c0 2.479-2.786 2.732-2.786 2.732H42.6zM82 42.523v-.046c0-.812-.62-1.477-1.376-1.477H39.376C38.62 41 38 41.665 38 42.477v.046c0 .812.62 1.477 1.376 1.477h41.248C81.38 44 82 43.335 82 42.523z" fill="#fff"/></svg>
